dist/images/icon/decor-arrow.svg

<svg width="258" height="258" viewBox="0 0 258 258" fill="none" xmlns="http://www.w3.org/2000/svg">
<g clip-path="url(#clip0_801_5262)">
<path fill-rule="evenodd" clip-rule="evenodd" d="M59.3288 63.8287C59.7535 82.7671 69.9863 102.99 85.1654 120.805C107.848 147.419 141.544 168.661 169.596 172.303C170.174 172.37 170.705 171.96 170.779 171.39C170.855 170.805 170.45 170.283 169.866 170.206C142.25 166.618 109.106 145.643 86.7755 119.428C71.9372 102.021 61.8532 82.2945 61.4464 63.7814C61.4356 63.1936 60.9517 62.7354 60.364 62.7463C59.7903 62.76 59.318 63.241 59.3288 63.8287Z" fill="#FF3F56"/>
<path fill-rule="evenodd" clip-rule="evenodd" d="M200.315 185.868C184.174 182.928 170.301 178.712 153.191 182.152C152.617 182.276 152.24 182.827 152.363 183.402C152.473 183.973 153.033 184.345 153.599 184.227C172.426 180.445 187.269 186.134 205.675 188.918C206.67 189.064 206.966 188.371 207.023 188.2C207.112 187.947 207.17 187.52 206.773 187.102C206.695 187.02 206.518 186.881 206.244 186.722C205.711 186.429 204.578 185.926 204.093 185.65C202.7 184.844 201.335 184.007 199.942 183.2C195.959 180.895 192.013 178.554 188.242 175.926C174.122 166.119 162.513 158.19 158.942 140.753C158.828 140.173 158.273 139.81 157.693 139.925C157.127 140.043 156.756 140.603 156.873 141.169C160.561 159.208 172.435 167.521 187.035 177.668C190.859 180.321 194.855 182.703 198.878 185.031C199.362 185.306 199.839 185.587 200.315 185.868Z" fill="#FF3F56"/>
</g>
<defs>
<clipPath id="clip0_801_5262">
<rect width="186" height="186" fill="white" transform="translate(0 102.318) rotate(-33.3738)"/>
</clipPath>
</defs>
</svg>

<svg width="258" height="258" fill="none" xmlns="http://www.w3.org/2000/svg"><g clip-path="url(#clip0_801_5262)" fill-rule="evenodd" clip-rule="evenodd" fill="#FF3F56"><path d="M59.329 63.829c.425 18.938 10.657 39.161 25.836 56.976 22.683 26.614 56.379 47.856 84.431 51.498a1.069 1.069 0 001.183-.913 1.05 1.05 0 00-.913-1.184c-27.616-3.588-60.76-24.563-83.09-50.778-14.839-17.407-24.923-37.133-25.33-55.647a1.055 1.055 0 00-1.082-1.035 1.066 1.066 0 00-1.035 1.083z"/><path d="M200.315 185.868c-16.141-2.94-30.014-7.156-47.124-3.716a1.058 1.058 0 00-.828 1.25c.11.571.67.943 1.236.825 18.827-3.782 33.67 1.907 52.076 4.691.995.146 1.291-.547 1.348-.718.089-.253.147-.68-.25-1.098a2.59 2.59 0 00-.529-.38c-.533-.293-1.666-.796-2.151-1.072-1.393-.806-2.758-1.643-4.151-2.45-3.983-2.305-7.929-4.646-11.7-7.274-14.12-9.807-25.729-17.736-29.3-35.173a1.051 1.051 0 00-1.249-.828 1.06 1.06 0 00-.82 1.244c3.688 18.039 15.562 26.352 30.162 36.499 3.824 2.653 7.82 5.035 11.843 7.363.484.275.961.556 1.437.837z"/></g><defs><clipPath id="clip0_801_5262"><path fill="#fff" transform="rotate(-33.374 170.664 51.159)" d="M0 0h186v186H0z"/></clipPath></defs></svg>
